; generated by Slic3r 1.2.9 on 2020-09-07 at 17:07:20

; external perimeters extrusion width = 0.45mm
; perimeters extrusion width = 0.45mm
; infill extrusion width = 0.60mm
; solid infill extrusion width = 0.50mm
; top infill extrusion width = 0.30mm

;Basic settings: Layer height: {layer_height} Walls: {wall_thickness} Fill: {fill_density}
;Print time: {print_time}
;Filament used: {filament_amount}m {filament_weight}g
;Filament cost: {filament_cost}
G21                          ; metric values
G90                          ; absolute positioning
M82                          ; set extruder to absolute mode
M107                         ; start with the fan off
G92 E0                       ; set extruder position to 0
M140 S110                     ; get bed heating up
G28                               ; home all
M109 S150                     ; set to cleaning temp and wait
G1 Z150 E-30 F75           ; suck up XXmm of filament
M109 S170                     ; heat up rest of way
G1 X45 Y174 F11520       ; move behind scraper
G1 Z0  F1200                  ; CRITICAL: set Z to height of top of scraper
G1 X45 Y174 Z-.5 F4000   ; wiping ; plunge into wipe pad
G1 X55 Y172 Z-.5 F4000       ; wiping
G1 X45 Y174 Z0 F4000         ; wiping
G1 X55 Y172 F4000            ; wiping
G1 X45 Y174 F4000            ; wiping
G1 X55 Y172 F4000            ; wiping
G1 X45 Y174 F4000            ; wiping
G1 X55 Y172 F4000            ; wiping
G1 X60 Y174 F4000            ; wiping
G1 X80 Y172 F4000            ; wiping
G1 X60 Y174 F4000            ; wiping
G1 X80 Y172 F4000            ; wiping
G1 X60 Y174 F4000            ; wiping
G1 X90 Y172 F4000            ; wiping
G1 X80 Y174 F4000            ; wiping
G1 X100 Y172 F4000           ; wiping
G1 X80 Y174 F4000            ; wiping
G1 X100 Y172 F4000           ; wiping
G1 X80 Y174 F4000            ; wiping
G1 X100 Y172 F4000           ; wiping
G1 X110 Y174 F4000           ; wiping
G1 X100 Y172 F4000           ; wiping
G1 X110 Y174 F4000           ; wiping
G1 X100 Y172 F4000           ; wiping
G1 X110 Y174 F4000           ; wiping
G1 X115 Y172 Z-0.5 F1000     ; wipe slower and bury noz in cleanish area
G1 Z10                       ; raise z
G28 X0 Y0                    ; home x and y
M109 S170                    ; set to probing temp
M204 S300                    ; set accel for probing
G29                          ; Probe
M204 S2000                   ; set accel back to normal
G1 X5 Y15 Z10 F5000          ; get out the way
M400                         ; clear buffer
G4 S1                        ; pause
M109 S240    ; set extruder temp and wait
G4 S25                       ; wait for bed to temp up
G1 Z2 E0 F75                 ; extrude filament back into nozzle
M140 S110; get bed temping up during first layer
G21 ; set units to millimeters
G90 ; use absolute coordinates
M82 ; use absolute distances for extrusion
G92 E0
G1 E-1.00000 F600.00000
G92 E0
G1 Z0.235 F10500.000
G1 Z0.460 F10500.000
G1 Z0.660 F10500.000
G1 X35.832 Y42.766 F10500.000
G1 Z0.460 F10500.000
G1 E1.00000 F600.00000
M204 S500
G1 X38.723 Y40.567 E1.17441 F900.000
G1 X39.063 Y40.327 E1.19440
G1 X42.097 Y38.331 E1.36881
G1 X45.249 Y36.526 E1.54322
G1 X48.127 Y35.093 E1.69765
G1 X49.640 Y34.439 E1.77680
G1 X51.855 Y33.515 E1.89205
G1 X54.888 Y32.447 E2.04648
G1 X58.377 Y31.440 E2.22089
G1 X61.922 Y30.651 E2.39530
G1 X63.549 Y30.385 E2.47445
G1 X65.922 Y30.030 E2.58970
G1 X69.540 Y29.708 E2.76411
G1 X72.962 Y29.605 E2.92853
G1 X137.962 Y29.605 E6.05008
G1 X140.244 Y30.002 E6.16134
G1 X142.259 Y31.147 E6.27260 F900.000
G1 X143.768 Y32.904 E6.38385
G1 X144.595 Y35.068 E6.49511
G1 X144.721 Y36.364 E6.55763
G1 X144.721 Y140.786 E11.57236
G1 X144.324 Y143.068 E11.68361
G1 X143.179 Y145.082 E11.79487
G1 X141.422 Y146.592 E11.90612
G1 X139.258 Y147.419 E12.01738
G1 X137.962 Y147.544 E12.07991
G1 X72.962 Y147.544 E15.20146
G1 X69.124 Y147.417 E15.38586
G1 X65.922 Y147.120 E15.54029
G1 X62.332 Y146.576 E15.71470
G1 X58.781 Y145.811 E15.88911
G1 X55.285 Y144.830 E16.06353
G1 X54.888 Y144.703 E16.08352
G1 X51.855 Y143.635 E16.23795
G1 X50.332 Y143.004 E16.31709
G1 X48.127 Y142.057 E16.43234
G1 X45.249 Y140.623 E16.58677
G1 X42.097 Y138.819 E16.76118
G1 X40.716 Y137.919 E16.84033
G1 X38.723 Y136.583 E16.95558
G1 X36.157 Y134.645 E17.11001
G1 X34.897 Y133.582 E17.18915
G1 X33.083 Y132.011 E17.30440
G1 X30.774 Y129.773 E17.45883
G1 X28.318 Y127.098 E17.63324
G1 X26.031 Y124.276 E17.80765
G1 X25.780 Y123.944 E17.82764
G1 X23.693 Y120.972 E18.00206
G1 X22.000 Y118.238 E18.15649
G1 X20.270 Y115.045 E18.33090
G1 X18.741 Y111.751 E18.50531
G1 X18.578 Y111.368 E18.52530
G1 X17.278 Y107.976 E18.69971
G1 X16.304 Y104.912 E18.85414
G1 X15.405 Y101.393 E19.02855
G1 X14.725 Y97.826 E19.20296
G1 X14.266 Y94.223 E19.37737
G1 X14.152 Y92.579 E19.45652
G1 X14.017 Y90.183 E19.57177
G1 X14.030 Y86.551 E19.74618
G1 X14.228 Y83.341 E19.90061
G1 X14.662 Y79.736 E20.07502
G1 X15.316 Y76.163 E20.24943
G1 X16.190 Y72.638 E20.42384
G1 X16.304 Y72.238 E20.44383
G1 X17.417 Y68.781 E20.61825
G1 X18.578 Y65.782 E20.77267
G1 X20.085 Y62.478 E20.94709
G1 X21.792 Y59.272 E21.12150
G1 X23.693 Y56.177 E21.29591
G1 X23.922 Y55.830 E21.31590
G1 X26.031 Y52.874 E21.49031
G1 X28.047 Y50.368 E21.64474
G1 X30.484 Y47.676 E21.81915
G1 X33.083 Y45.138 E21.99356
G1 X35.775 Y42.815 E22.16437
M204 S2000
G1 E21.16437 F600.00000
G92 E0
G1 Z0.660 F10500.000
G1 X37.458 Y44.778 F10500.000
G1 Z0.460 F10500.000
G1 E1.00000 F600.00000
M204 S500
G1 X40.332 Y42.592 E1.17345 F900.000
G1 X43.225 Y40.670 E1.34022
G1 X46.230 Y38.930 E1.50699
G1 X49.454 Y37.325 E1.67994
G1 X52.534 Y36.022 E1.84054
G1 X53.876 Y35.544 E1.90896
G1 X55.930 Y34.825 E2.01348
G1 X59.147 Y33.909 E2.17409
G1 X62.538 Y33.163 E2.34086
G1 X66.097 Y32.610 E2.51380
G1 X69.555 Y32.294 E2.68058
G1 X72.930 Y32.191 E2.84272
G1 X139.691 Y32.191 E6.04883
G1 X142.135 Y34.636 E6.21486
G1 X142.135 Y142.514 E11.39562 F900.000
G1 X139.691 Y144.959 E11.56166
G1 X72.930 Y144.959 E14.76777
G1 X69.427 Y144.848 E14.93608
G1 X66.097 Y144.540 E15.09668
G1 X62.665 Y144.011 E15.26346
G1 X59.271 Y143.272 E15.43023
G1 X55.808 Y142.286 E15.60317
G1 X52.654 Y141.175 E15.76378
G1 X51.340 Y140.623 E15.83220
G1 X49.337 Y139.771 E15.93672
G1 X46.344 Y138.280 E16.09732
G1 X43.334 Y136.548 E16.26409
G1 X40.332 Y134.558 E16.43704
G1 X37.664 Y132.543 E16.59764
G1 X36.579 Y131.619 E16.66606
G1 X34.929 Y130.200 E16.77058
G1 X32.528 Y127.872 E16.93119
G1 X30.185 Y125.308 E17.09796
G1 X28.005 Y122.605 E17.26473
G1 X25.925 Y119.666 E17.43767
G1 X24.164 Y116.823 E17.59828
G1 X22.518 Y113.765 E17.76505
G1 X21.063 Y110.612 E17.93182
G1 X19.800 Y107.375 E18.09866
G1 X18.748 Y104.067 E18.26538
G1 X17.897 Y100.700 E18.43215
G1 X17.235 Y97.160 E18.60510
G1 X16.824 Y93.841 E18.76570
G1 X16.607 Y90.376 E18.93247
G1 X16.607 Y86.774 E19.10541
G1 X16.824 Y83.308 E19.27219
G1 X17.235 Y79.990 E19.43279
G1 X17.869 Y76.575 E19.59956
G1 X18.304 Y74.833 E19.68578
G1 X18.748 Y73.083 E19.77250
G1 X19.804 Y69.775 E19.93928
G1 X21.063 Y66.538 E20.10605
G1 X22.460 Y63.500 E20.26665
G1 X24.100 Y60.439 E20.43343
G1 X25.925 Y57.484 E20.60020
G1 X28.005 Y54.545 E20.77314
G1 X30.102 Y51.939 E20.93374
G1 X32.438 Y49.370 E21.10052
G1 X34.929 Y46.950 E21.26729
G1 X37.401 Y44.827 E21.42377
M204 S2000
G1 X37.894 Y45.403 F10500.000
M204 S500
G1 X38.130 Y45.205 E21.43855 F900.000
G1 X40.780 Y43.204 E21.59803
G1 X43.634 Y41.309 E21.76256
G1 X46.600 Y39.593 E21.92709
G1 X49.761 Y38.019 E22.09666
G1 X52.819 Y36.725 E22.25614
G1 X56.049 Y35.583 E22.42067
G1 X59.343 Y34.642 E22.58520
G1 X62.689 Y33.906 E22.74973
G1 X66.178 Y33.365 E22.91930
G1 X69.590 Y33.052 E23.08383
G1 X72.936 Y32.950 E23.24458
G1 X139.376 Y32.950 E26.43531
G1 X141.377 Y34.950 E26.57116 F900.000
G1 X141.377 Y142.200 E31.72173
G1 X139.376 Y144.200 E31.85757
G1 X72.936 Y144.200 E35.04831
G1 X69.485 Y144.092 E35.21410
G1 X66.074 Y143.772 E35.37863
G1 X62.793 Y143.263 E35.53811
G1 X59.445 Y142.533 E35.70264
G1 X56.049 Y141.567 E35.87221
G1 X52.917 Y140.463 E36.03169
G1 X51.636 Y139.924 E36.09843
G1 X49.665 Y139.087 E36.20127
G1 X46.692 Y137.606 E36.36075
G1 X43.724 Y135.896 E36.52528
G1 X40.780 Y133.946 E36.69486
G1 X38.130 Y131.945 E36.85433
G1 X37.073 Y131.043 E36.92107
G1 X35.449 Y129.647 E37.02391
G1 X33.065 Y127.335 E37.18339
G1 X30.686 Y124.726 E37.35297
G1 X28.604 Y122.139 E37.51245
G1 X26.622 Y119.344 E37.67698
G1 X24.763 Y116.342 E37.84655
G1 X23.145 Y113.322 E38.01108
G1 X21.716 Y110.208 E38.17561
G1 X20.516 Y107.112 E38.33509
G1 X19.475 Y103.848 E38.49962
G1 X18.636 Y100.526 E38.66415
G1 X18.003 Y97.159 E38.82868
G1 X17.569 Y93.655 E38.99825
G1 X17.361 Y90.235 E39.16278
G1 X17.365 Y86.809 E39.32731
G1 X17.579 Y83.390 E39.49184
G1 X17.987 Y80.094 E39.65132
G1 X18.636 Y76.623 E39.82089
G1 X19.446 Y73.403 E39.98037
G1 X20.481 Y70.137 E40.14490
G1 X21.716 Y66.941 E40.30943
G1 X23.145 Y63.828 E40.47396
G1 X24.763 Y60.808 E40.63849
G1 X26.564 Y57.893 E40.80302
G1 X28.604 Y55.011 E40.97259
G1 X30.686 Y52.424 E41.13207
G1 X32.991 Y49.890 E41.29660
G1 X35.449 Y47.503 E41.46113
G1 X37.837 Y45.452 E41.61233
M204 S2000
G1 X38.331 Y46.028 F10500.000
M204 S500
G1 X38.597 Y45.804 E41.62902 F900.000
G1 X41.228 Y43.817 E41.78738
G1 X44.044 Y41.948 E41.94967
G1 X46.969 Y40.256 E42.11195
G1 X50.067 Y38.713 E42.27816
G1 X53.104 Y37.428 E42.43652
G1 X54.381 Y36.976 E42.50157
G1 X56.368 Y36.278 E42.60273
G1 X59.540 Y35.376 E42.76109
G1 X62.840 Y34.650 E42.92337
G1 X66.260 Y34.119 E43.08958
G1 X69.625 Y33.810 E43.25186
G1 X72.942 Y33.708 E43.41120
G1 X139.062 Y33.708 E46.58656
G1 X140.618 Y35.264 E46.69222
G1 X140.618 Y141.886 E51.81260 F900.000
G1 X139.062 Y143.441 E51.91826
G1 X72.942 Y143.441 E55.09362
G1 X69.544 Y143.335 E55.25689
G1 X66.179 Y143.021 E55.41917
G1 X62.840 Y142.500 E55.58146
G1 X59.619 Y141.794 E55.73981
G1 X56.368 Y140.872 E55.90210
G1 X53.180 Y139.751 E56.06438
G1 X49.993 Y138.402 E56.23059
G1 X47.041 Y136.932 E56.38895
G1 X44.113 Y135.245 E56.55123
G1 X41.295 Y133.380 E56.71352
G1 X38.597 Y131.346 E56.87580
G1 X35.968 Y129.094 E57.04201
G1 X33.601 Y126.799 E57.20037
G1 X31.323 Y124.303 E57.36265
G1 X29.153 Y121.607 E57.52887
G1 X27.248 Y118.915 E57.68722
G1 X25.467 Y116.044 E57.84951
G1 X23.866 Y113.068 E58.01179
G1 X22.451 Y109.999 E58.17407
G1 X21.228 Y106.849 E58.33636
G1 X20.201 Y103.629 E58.49864
G1 X19.357 Y100.273 E58.66485
G1 X18.751 Y97.031 E58.82321
G1 X18.333 Y93.678 E58.98549
G1 X18.123 Y90.305 E59.14778
G1 X18.120 Y86.926 E59.31006
G1 X18.326 Y83.553 E59.47235
G1 X18.490 Y82.209 E59.53740
G1 X18.751 Y80.118 E59.63856
G1 X19.374 Y76.797 E59.80084
G1 X20.201 Y73.521 E59.96313
G1 X21.201 Y70.378 E60.12148
G1 X22.419 Y67.226 E60.28377
G1 X23.829 Y64.155 E60.44605
G1 X25.426 Y61.177 E60.60833
G1 X27.203 Y58.303 E60.77062
G1 X29.202 Y55.478 E60.93683
G1 X31.269 Y52.909 E61.09519
G1 X33.544 Y50.410 E61.25747
G1 X35.968 Y48.056 E61.41975
G1 X38.274 Y46.077 E61.56567
M204 S2000
G1 X38.768 Y46.653 F10500.000
M204 S500
G1 X39.063 Y46.402 E61.58428 F900.000
G1 X41.676 Y44.429 E61.74152
G1 X44.453 Y42.587 E61.90156
G1 X47.338 Y40.919 E62.06160
G1 X50.374 Y39.408 E62.22444
G1 X53.443 Y38.110 E62.38448
G1 X56.531 Y37.022 E62.54172
G1 X59.736 Y36.109 E62.70175
G1 X62.991 Y35.394 E62.86179
G1 X66.342 Y34.874 E63.02464
G1 X69.660 Y34.568 E63.18468
G1 X72.947 Y34.467 E63.34261
G1 X138.748 Y34.467 E66.50260
G1 X139.859 Y35.578 E66.57807 F900.000
G1 X139.859 Y141.571 E71.66826
G1 X138.748 Y142.683 E71.74374
G1 X72.947 Y142.683 E74.90372
G1 X69.602 Y142.578 E75.06446
G1 X66.284 Y142.269 E75.22450
G1 X62.991 Y141.756 E75.38454
G1 X59.793 Y141.056 E75.54178
G1 X56.587 Y140.145 E75.70182
G1 X53.443 Y139.039 E75.86186
G1 X50.321 Y137.718 E76.02470
G1 X47.390 Y136.258 E76.18194
G1 X44.503 Y134.594 E76.34197
G1 X41.724 Y132.754 E76.50201
G1 X39.018 Y130.711 E76.66486
G1 X36.488 Y128.541 E76.82490
G1 X34.138 Y126.262 E76.98213
G1 X31.891 Y123.801 E77.14217
G1 X29.765 Y121.159 E77.30502
G1 X27.874 Y118.487 E77.46225
G1 X26.118 Y115.654 E77.62229
G1 X24.540 Y112.719 E77.78233
G1 X23.145 Y109.692 E77.94237
G1 X21.940 Y106.585 E78.10241
G1 X20.928 Y103.410 E78.26245
G1 X20.101 Y100.122 E78.42529
G1 X19.490 Y96.846 E78.58533
G1 X19.088 Y93.596 E78.74257
G1 X18.881 Y90.270 E78.90261
G1 X18.879 Y86.938 E79.06265
G1 X19.082 Y83.612 E79.22269
G1 X19.243 Y82.302 E79.28606
G1 X19.499 Y80.246 E79.38553
G1 X20.113 Y76.971 E79.54557
G1 X20.912 Y73.796 E79.70281
G1 X21.920 Y70.620 E79.86285
G1 X23.122 Y67.511 E80.02289
G1 X24.514 Y64.483 E80.18293
G1 X26.089 Y61.546 E80.34297
G1 X27.842 Y58.712 E80.50300
G1 X29.801 Y55.944 E80.66585
G1 X31.853 Y53.394 E80.82308
G1 X34.097 Y50.930 E80.98312
G1 X36.488 Y48.609 E81.14316
G1 X38.711 Y46.702 E81.28379
M204 S2000
G1 X39.205 Y47.278 F10500.000
M204 S500
G1 X39.530 Y47.001 E81.30432 F900.000
G1 X42.124 Y45.042 E81.46044
G1 X44.862 Y43.226 E81.61823
G1 X47.708 Y41.582 E81.77603
G1 X50.680 Y40.102 E81.93551
G1 X53.706 Y38.822 E82.09330
G1 X56.772 Y37.742 E82.24941
G1 X59.932 Y36.842 E82.40721
G1 X63.142 Y36.138 E82.56500
G1 X66.423 Y35.628 E82.72448
G1 X69.695 Y35.326 E82.88228
G1 X72.953 Y35.226 E83.03881
G1 X138.433 Y35.226 E86.18342
G1 X139.100 Y35.893 E86.22870
G1 X139.100 Y141.257 E91.28871 F900.000
G1 X138.433 Y141.924 E91.33399
G1 X72.953 Y141.924 E94.47860
G1 X69.660 Y141.822 E94.63682
G1 X66.389 Y141.517 E94.79462
G1 X63.142 Y141.012 E94.95241
G1 X59.966 Y140.317 E95.10852
G1 X56.806 Y139.419 E95.26632
G1 X53.706 Y138.328 E95.42411
G1 X50.648 Y137.033 E95.58359
G1 X47.708 Y135.568 E95.74139
G1 X44.892 Y133.942 E95.89750
G1 X42.153 Y132.128 E96.05530
G1 X39.503 Y130.127 E96.21477
G1 X37.008 Y127.988 E96.37257
G1 X34.674 Y125.726 E96.52868
G1 X32.460 Y123.298 E96.68648
G1 X30.378 Y120.711 E96.84595
G1 X28.500 Y118.058 E97.00207
G1 X26.769 Y115.265 E97.15986
G1 X25.214 Y112.370 E97.31766
G1 X23.839 Y109.386 E97.47545
G1 X22.652 Y106.322 E97.63325
G1 X21.654 Y103.191 E97.79104
G1 X20.844 Y99.971 E97.95052
G1 X20.247 Y96.776 E98.10663
G1 X19.842 Y93.515 E98.26443
G1 X19.639 Y90.235 E98.42222
G1 X19.638 Y86.950 E98.58002
G1 X19.839 Y83.670 E98.73781
G1 X19.996 Y82.395 E98.79950
G1 X20.247 Y80.374 E98.89729
G1 X20.852 Y77.145 E99.05509
G1 X21.654 Y73.958 E99.21288
G1 X22.640 Y70.861 E99.36900
G1 X23.826 Y67.796 E99.52679
G1 X25.198 Y64.811 E99.68459
G1 X26.752 Y61.916 E99.84238
G1 X28.480 Y59.121 E100.00018
G1 X30.399 Y56.411 E100.15965
G1 X32.437 Y53.878 E100.31577
G1 X34.650 Y51.449 E100.47356
G1 X37.008 Y49.161 E100.63136
G1 X39.148 Y47.327 E100.76670
M204 S2000
G1 X39.641 Y47.903 F10500.000
M204 S500
G1 X39.997 Y47.599 E100.78915 F900.000
G1 X42.572 Y45.654 E100.94414
G1 X45.272 Y43.865 E101.09969
G1 X48.077 Y42.245 E101.25524
G1 X50.987 Y40.796 E101.41136
G1 X53.959 Y39.538 E101.56635
G1 X55.137 Y39.123 E101.62635
G1 X57.025 Y38.458 E101.72246
G1 X60.129 Y37.575 E101.87745
G1 X63.293 Y36.881 E102.03300
G1 X66.505 Y36.383 E102.18911
G1 X69.730 Y36.084 E102.34466
G1 X72.959 Y35.985 E102.49979
G1 X138.119 Y35.985 E105.62903
G1 X138.341 Y36.207 E105.64412 F900.000
G1 X138.341 Y140.943 E110.67394
G1 X138.119 Y141.165 E110.68903
G1 X72.959 Y141.165 E113.81827
G1 X69.730 Y141.066 E113.97340
G1 X66.493 Y140.766 E114.12951
G1 X63.293 Y140.269 E114.28506
G1 X60.140 Y139.578 E114.44005
G1 X57.025 Y138.692 E114.59561
G1 X53.959 Y137.612 E114.75172
G1 X50.976 Y136.349 E114.90727
G1 X48.087 Y134.910 E115.06226
G1 X45.282 Y133.291 E115.21781
G1 X42.582 Y131.502 E115.37336
G1 X39.997 Y129.551 E115.52891
G1 X37.528 Y127.436 E115.68502
G1 X35.211 Y125.189 E115.84001
G1 X33.029 Y122.795 E115.99556
G1 X30.991 Y120.263 E116.15168
G1 X29.126 Y117.629 E116.30666
G1 X27.420 Y114.875 E116.46222
G1 X25.888 Y112.022 E116.61777
G1 X24.534 Y109.079 E116.77332
G1 X23.363 Y106.059 E116.92887
G1 X22.381 Y102.973 E117.08442
G1 X21.588 Y99.820 E117.24053
G1 X20.995 Y96.648 E117.39552
G1 X20.597 Y93.433 E117.55107
G1 X20.397 Y90.200 E117.70662
G1 X20.397 Y86.961 E117.86217
G1 X20.596 Y83.728 E118.01772
G1 X20.749 Y82.488 E118.07773
G1 X20.995 Y80.502 E118.17384
G1 X21.591 Y77.318 E118.32939
G1 X22.381 Y74.177 E118.48494
